components/Common/Svg/svgs/uiUxDesign2.svg

<svg width="90" height="90" viewBox="0 0 90 90" fill="none" xmlns="http://www.w3.org/2000/svg">
<circle opacity="0.7" cx="45" cy="45" r="45" fill="#FFE603"/>
<path fill-rule="evenodd" clip-rule="evenodd" d="M54.7839 31.8836C55.1432 30.8704 56.1109 30.1426 57.2457 30.1426C58.6858 30.1426 59.8574 31.3141 59.8574 32.7542C59.8574 34.1942 58.6858 35.3657 57.2457 35.3657C56.1109 35.3657 55.1432 34.6379 54.7839 33.6247H51.5273C55.5888 35.9572 58.1163 40.2633 58.1163 44.9415C58.1163 45.4223 57.7265 45.812 57.2457 45.812C56.765 45.812 56.3752 45.4223 56.3752 44.9415C56.3752 39.6891 52.6726 35.1208 47.6118 33.9274V34.4952C47.6118 34.976 47.222 35.3657 46.7413 35.3657H43.2591C42.7784 35.3657 42.3886 34.976 42.3886 34.4952V33.9275C37.3278 35.1208 33.6252 39.6891 33.6252 44.9415C33.6252 45.4223 33.2354 45.812 32.7547 45.812C32.2739 45.812 31.8841 45.4223 31.8841 44.9415C31.8841 40.2573 34.4166 35.9537 38.4731 33.6241H35.2165C34.8572 34.6373 33.8896 35.3657 32.7547 35.3657C31.3146 35.3657 30.1431 34.1942 30.1431 32.7542C30.1431 31.3141 31.3146 30.1426 32.7547 30.1426C33.8896 30.1426 34.8572 30.8704 35.2165 31.8836H42.3886V31.0131C42.3886 30.5323 42.7784 30.1426 43.2591 30.1426H46.7413C47.222 30.1426 47.6118 30.5323 47.6118 31.0131V31.8836H54.7839ZM31.8841 32.7542C31.8841 33.2342 32.2747 33.6247 32.7547 33.6247C33.2347 33.6247 33.6252 33.2342 33.6252 32.7542C33.6252 32.2741 33.2347 31.8836 32.7547 31.8836C32.2747 31.8836 31.8841 32.2741 31.8841 32.7542ZM44.1297 33.6247H45.8707V31.8836H44.1297V33.6247ZM56.3752 32.7542C56.3752 33.2342 56.7657 33.6247 57.2457 33.6247C57.7258 33.6247 58.1163 33.2342 58.1163 32.7542C58.1163 32.2741 57.7258 31.8836 57.2457 31.8836C56.7657 31.8836 56.3752 32.2741 56.3752 32.7542ZM44.2221 37.5894C44.5435 36.9441 45.4623 36.9503 45.7807 37.5894L51.8744 49.8348C52.0127 50.1126 51.9926 50.4429 51.8218 50.7019L48.4835 55.765V58.986C48.4835 59.4667 48.0937 59.8565 47.613 59.8565H42.3898C41.909 59.8565 41.5192 59.4667 41.5192 58.986V55.765L38.1809 50.7019C38.0101 50.4429 37.9901 50.1126 38.1283 49.8348L44.2221 37.5894ZM43.2603 56.3744V58.1154H46.7424V56.3744H43.2603ZM42.8585 54.6333H47.1443L50.0925 50.1619L45.8719 41.6806V50.2227C45.8719 50.7034 45.4821 51.0932 45.0014 51.0932C44.5206 51.0932 44.1308 50.7034 44.1308 50.2227V41.6806L39.9103 50.1619L42.8585 54.6333Z" fill="#161616"/>
</svg>

<svg width="90" height="90" viewBox="0 0 90 90" fill="none" xmlns="http://www.w3.org/2000/svg"><circle opacity=".7" cx="45" cy="45" r="45" fill="#FFE603"/><path fill-rule="evenodd" clip-rule="evenodd" d="M54.784 31.884a2.616 2.616 0 0 1 2.462-1.741 2.615 2.615 0 0 1 2.611 2.611 2.615 2.615 0 0 1-2.611 2.612 2.616 2.616 0 0 1-2.462-1.741h-3.257c4.062 2.332 6.59 6.638 6.59 11.316a.87.87 0 0 1-1.742 0c0-5.252-3.702-9.82-8.763-11.014v.568c0 .481-.39.87-.87.87h-3.483a.87.87 0 0 1-.87-.87v-.567c-5.061 1.193-8.764 5.761-8.764 11.014a.87.87 0 0 1-1.74 0c0-4.685 2.532-8.988 6.588-11.318h-3.256a2.616 2.616 0 0 1-2.462 1.742 2.614 2.614 0 0 1-2.612-2.612 2.614 2.614 0 0 1 2.612-2.611c1.135 0 2.102.727 2.462 1.74h7.172v-.87c0-.48.39-.87.87-.87h3.482c.481 0 .87.39.87.87v.87h7.173Zm-22.9.87a.872.872 0 0 0 1.741 0 .872.872 0 0 0-1.74 0Zm12.246.87h1.74v-1.74h-1.74v1.74Zm12.245-.87a.871.871 0 0 0 1.741 0 .872.872 0 0 0-1.74 0ZM44.222 37.59a.871.871 0 0 1 1.559 0l6.093 12.246a.87.87 0 0 1-.052.867l-3.339 5.063v3.221c0 .48-.39.87-.87.87H42.39a.87.87 0 0 1-.87-.87v-3.221l-3.34-5.063a.87.87 0 0 1-.052-.867l6.094-12.246Zm-.962 18.785v1.741h3.482v-1.74H43.26Zm-.401-1.74h4.285l2.949-4.472-4.221-8.481v8.542a.87.87 0 0 1-1.741 0V41.68l-4.22 8.48 2.947 4.472Z" fill="#161616"/></svg>
